layout/left-panel/icons/close-r.svg

<svg fill="none" height="24" viewBox="0 0 24 24" width="24" xmlns="http://www.w3.org/2000/svg"><g fill="#f4f4f7"><path d="m16.3956 7.75734c.3906.39052.3906 1.02369 0 1.41421l-2.9814 2.98145 2.6754 2.6754c.3906.3905.3906 1.0237 0 1.4142-.3905.3905-1.0237.3905-1.4142 0l-2.6754-2.6754-2.67542 2.6754c-.39053.3905-1.02369.3905-1.41422 0-.39052-.3905-.39052-1.0237 0-1.4142l2.67544-2.6754-2.98144-2.98145c-.39053-.39052-.39053-1.02369 0-1.41421.39052-.39053 1.02369-.39053 1.41421 0l2.98143 2.98146 2.9814-2.98146c.3906-.39053 1.0237-.39053 1.4142 0z"/><path clip-rule="evenodd" d="m4 1c-1.65685 0-3 1.34315-3 3v16c0 1.6569 1.34315 3 3 3h16c1.6569 0 3-1.3431 3-3v-16c0-1.65685-1.3431-3-3-3zm16 2h-16c-.55228 0-1 .44772-1 1v16c0 .5523.44772 1 1 1h16c.5523 0 1-.4477 1-1v-16c0-.55228-.4477-1-1-1z" fill-rule="evenodd"/></g></svg>

<svg
  width="24"
  height="24"
  viewBox="0 0 24 24"
  fill="none"
  xmlns="http://www.w3.org/2000/svg"
>
  <path
    d="M16.3956 7.75734C16.7862 8.14786 16.7862 8.78103 16.3956 9.17155L13.4142 12.153L16.0896 14.8284C16.4802 15.2189 16.4802 15.8521 16.0896 16.2426C15.6991 16.6331 15.0659 16.6331 14.6754 16.2426L12 13.5672L9.32458 16.2426C8.93405 16.6331 8.30089 16.6331 7.91036 16.2426C7.51984 15.8521 7.51984 15.2189 7.91036 14.8284L10.5858 12.153L7.60436 9.17155C7.21383 8.78103 7.21383 8.14786 7.60436 7.75734C7.99488 7.36681 8.62805 7.36681 9.01857 7.75734L12 10.7388L14.9814 7.75734C15.372 7.36681 16.0051 7.36681 16.3956 7.75734Z"
    fill="#f4f4f7"
  />
  <path
    fill-rule="evenodd"
    clip-rule="evenodd"
    d="M4 1C2.34315 1 1 2.34315 1 4V20C1 21.6569 2.34315 23 4 23H20C21.6569 23 23 21.6569 23 20V4C23 2.34315 21.6569 1 20 1H4ZM20 3H4C3.44772 3 3 3.44772 3 4V20C3 20.5523 3.44772 21 4 21H20C20.5523 21 21 20.5523 21 20V4C21 3.44772 20.5523 3 20 3Z"
    fill="#f4f4f7"
  />
</svg>
